!!!COM: Messiaen, Olivier (Eugène Prosper Charles)
!!!OTL: Catalogue d'oiseaux (Birds Catalogue) for Piano
!!!OMV: IX: La Bouscarle (The Warbler)
!!!example: 789
!!!work: Mes-29
**kern	**kern	**dynam
*part1	*part1	*part1
*staff2	*staff1	*
*I"Piano	*	*
*I'Pno.	*	*
*clefG2	*clefG2	*
*k[]	*k[]	*
*C:	*C:	*
*M2/16	*M2/16	*
*MM121	*MM121	*
=18	=18	=18
8qg#X/ 8qb#X 8qcc#X 8qff#X	.	.
16AnLL 16dn 16e-X 16gn	8r	.
8qg#X/ 8qb# 8qcc# 8qff#	.	.
16AJJ 16d 16e- 16g#X	.	.
=19	=19	=19
*M3/4	*M3/4	*
2.r	2.r	.
*clefF4	*	*
=20	=20	=20
*M2/4	*M2/4	*
16r	4cn 4f#X 4bn	pp
[8.BBB-X [8.EEn	.	.
8BBB-L] 8EE]	8dnL 8gn 8dd-X	.
[8FFnJ	8AnJ 8e-X 8a-X	.
=21	=21	=21
16FFKL]	4Gn 4B-X 4f#X	.
8.CCnJ 8.AA-X 8.Dn	.	.
[4AAn [4En	4Bn 4c#X 4d#X	.
=22	=22	=22
16AAKL] 16En]	8dn 8gn 8cc#X	.
[8.AA-XJ [8.An	.	.
*	*clefF4	*
.	4F#X 4Bn 4fn	.
8AA-L] 8An]	.	.
[8E-XJ	[8B-X [8cn [8en	.
=23	=23	=23
*^	*	*
16E-KL]	4ryy	16B-KL] 16c] 16en]	.
*	*	*clefG2	*
[8.CnJ [8.An	.	8.e-XJ 8.bn 8.ddn	.
*	*	*clefF4	*
8C] 8A]	8ryy	8.GnL 8.d-X 8.fn	.
16ryy	[8AA-X [8B-X	.	.
*	*	*clefG2	*
[16F#X	.	[16enJk [16bn [16ffn	.
=24	=24	=24	=24
8.F#]	8AA-] 8B-]	8.eL] 8.b] 8.ff]	.
.	4EE-X 4Dn	.	.
16ryy	.	[16cnJk [16a-X [16dd-X	.
4ryy	.	16cKL] 16a-] 16dd-]	.
.	.	8B-X 8gn 8an	.
.	[8Fn	.	.
.	.	[16GnJk [16en	.
=25	=25	=25	=25
2r	8FL] 8d-X	8.GnL] 8.en]	.
.	[8BBB-XJ [8BBn	.	.
*	*	*clefF4	*
.	.	[16F#XJk [16cn	.
.	8.BBB-L] 8.BB]	8.F#L] 8.c]	.
*	*	*clefG2	*
.	[16E-XJk [16An	[16dnJk [16a-X	.
=26	=26	=26	=26
2r	8E-L] 8A]	16dKL] 16a-]	.
.	.	[8.dd-XJ [8.cccn	.
.	[8A-XJ [8B-X [8dn [8fn	.	.
.	16A-KL] 16B-] 16d] 16fn]	16dd-KL] 16cccn]	.
*clefG2	*	*	*
.	[8.enJ [8.f#X	8ee-X 8ggn	.
.	.	[16anJk [16bn	.
*v	*v	*	*
=	=	=
*-	*-	*-
!!!system-decoration: {(s1,s2)}
!!!CDT: 1908/12/10-1992/04/27
!!!CBL: Avignon, France
!!!CDL: Paris, France
!!!CNT: French
!!!AGN: Instrumental; Keyboard
!!!MCN:
!!!MDT: 1959/04/15
!!!MGN:
!!!MLC: Paris, France
!!!MPD: 1959
!!!MPN: Loriod, Yvonne
!!!ODT: 1958
!!!PDT: 1964
!!!excerpt-start-measure: 18
!!!excerpt-end-measure: 26
!!!excerpt-start-time: 0:34
!!!excerpt-end-time: 0:52
!!!EEV: 2020/01/22
!!!ONB: Converted from MusicXML on 2020/01/22
